X:1
T: George's Square
C:William Marshall
R:Reel
Q: 232
K:F
M:4/4
L:1/8
|:f|cF cA cF fd|cF cA dG Gf|cF cA fg ag|df cA G3f|
cF cA cF fd|cF cA dG Gf|cF cA fg ag|df cA G3e|
fg ag fF FA|fg af bg ga|fg af ge fc|df cA G3e|
fg ag fF FA|fg af bg ga|fg af ge fc|df cA G3:|
